**kern	**text	**kern	**text	**kern	**text	**kern	**text	**kern	**text
*staff5	*staff5	*staff4	*staff4	*staff3	*staff3	*staff2	*staff2	*staff1	*staff1
*I"Basso	*	*I"Tenore	*	*I"Alto	*	*I"Soprano II	*	*I"Soprano I	*
=1-	=1-	=1-	=1-	=1-	=1-	=1-	=1-	=1-	=1-
*clefF4	*	*clefGv2	*	*clefGv2	*	*clefG2	*	*clefG2	*
*k[b-]	*	*k[b-]	*	*k[b-]	*	*k[b-]	*	*k[b-]	*
*met(c|)	*	*met(c|)	*	*met(c|)	*	*met(c|)	*	*met(c|)	*
*M2/2	*	*M2/2	*	*M2/2	*	*M2/2	*	*M2/2	*
1r	.	1r	.	[1c	Ec-	1r	.	1r	.
=2	=2	=2	=2	=2	=2	=2	=2	=2	=2
1r	.	1r	.	1c]	.	1r	.	1r	.
=3	=3	=3	=3	=3	=3	=3	=3	=3	=3
1r	.	[1c	Ec-	[1A	-ce	1r	.	1r	.
=4	=4	=4	=4	=4	=4	=4	=4	=4	=4
[1F	Ec-	1c]	.	1A]	.	1r	.	1r	.
=5	=5	=5	=5	=5	=5	=5	=5	=5	=5
1F]	.	1A	-ce	1c	vi-	1r	.	[1f	Ec-
=6	=6	=6	=6	=6	=6	=6	=6	=6	=6
1D	-ce	1r	.	2B-\	-di-	1r	.	1f]	.
.	.	.	.	2A/	-mus	.	.	.	.
=7	=7	=7	=7	=7	=7	=7	=7	=7	=7
1G	vi-	2r	.	1B-	e-	1r	.	1d	-ce
.	.	2B-\	vi-	.	.	.	.	.	.
=8	=8	=8	=8	=8	=8	=8	=8	=8	=8
2F\	-di-	2A/	-di-	1c	-um	1r	.	2r	.
2E\	-mus	2G/	-mus	.	.	.	.	[2g/	vi-
=9	=9	=9	=9	=9	=9	=9	=9	=9	=9
1F	e-	1A	e-	2r	.	1r	.	2g/]	.
.	.	.	.	[2c\	vi-	.	.	2f/	-di-
=10	=10	=10	=10	=10	=10	=10	=10	=10	=10
1C	-um	1G	-um	4c\]	.	1r	.	1e	-mus
.	.	.	.	4c\	-di-	.	.	.	.
.	.	.	.	2c\	-mus	.	.	.	.
=11	=11	=11	=11	=11	=11	=11	=11	=11	=11
!!linebreak:original
1D	non	1F	non	2.A/	e-	1r	.	1f	e-
.	.	.	.	4B-\	.	.	.	.	.
=12	=12	=12	=12	=12	=12	=12	=12	=12	=12
1C	ha-	2G/	ha-	1c	.	1r	.	1e	-um
.	.	2A/	-ben-	.	.	.	.	.	.
=13	=13	=13	=13	=13	=13	=13	=13	=13	=13
2BB-/	-ben-	2D/	-tem	1F	-um	1r	.	2r	.
2AA/	-tem	[2F/	spe-	.	.	.	.	[2a/	non
=14	=14	=14	=14	=14	=14	=14	=14	=14	=14
2BB-/	spe-	2F/]	.	1r	.	1r	.	2a/]	.
2C/	-ci-	2E/	-ci-	.	.	.	.	2g/	ha-
=15	=15	=15	=15	=15	=15	=15	=15	=15	=15
1D	-em,	1F	-em,	2A/	non	1r	.	1f	-ben-
.	.	.	.	2Bn\	ha-	.	.	.	.
=16	=16	=16	=16	=16	=16	=16	=16	=16	=16
1C	ne-	1G	ne-	1c	-ben-	1r	.	1e	-tem
=17	=17	=17	=17	=17	=17	=17	=17	=17	=17
2BB-/	-que	2B-\	-que	2F/	-tem	1r	.	1f	spe-
2D\	de-	2A/	de-	[2f\	spe-	.	.	.	.
=18	=18	=18	=18	=18	=18	=18	=18	=18	=18
1C	-co-	1c	-co-	2f\]	.	1r	.	1g	-ci-
.	.	.	.	2e\	-ci-	.	.	.	.
=19	=19	=19	=19	=19	=19	=19	=19	=19	=19
2F\	-rem:	1c	-rem:	2f\	-em,	1r	.	1a	-em,
[2D\	ne-	.	.	[2A/	ne-	.	.	.	.
=20	=20	=20	=20	=20	=20	=20	=20	=20	=20
2D\]	.	1F	ne-	2A/]	.	1r	.	1d	ne-
[2BB-/	-que	.	.	[2d\	-que	.	.	.	.
=21	=21	=21	=21	=21	=21	=21	=21	=21	=21
!!pagebreak:original
2BB-/]	.	2B-\	-que	2d\]	.	1r	.	1f	-que
2D\	de-	2F/	de-	2A/	de-	.	.	.	.
=22	=22	=22	=22	=22	=22	=22	=22	=22	=22
[1C	-co-	[1G	-co-	[1c	-co-	1r	.	2e/	de-
.	.	.	.	.	.	.	.	[2f/	-co-
=23	=23	=23	=23	=23	=23	=23	=23	=23	=23
1C]	.	1G]	.	1c]	.	1r	.	2f/]	.
.	.	.	.	.	.	.	.	2e/	.
=24	=24	=24	=24	=24	=24	=24	=24	=24	=24
1FF	-rem:	1A	-rem:	1c	-rem:	1r	.	1f	-rem:
=25	=25	=25	=25	=25	=25	=25	=25	=25	=25
2r	.	2r	.	2r	.	1r	.	2r	.
2BB-/	a-	2B-\	a-	2d\	a-	.	.	2f/	a-
=26	=26	=26	=26	=26	=26	=26	=26	=26	=26
2BB-/	-spe-	2B-\	-spe-	2d\	-spe-	1r	.	2f/	-spe-
2BB-/	-ctus	2B-\	-ctus	2d\	-ctus	.	.	2f/	-ctus
=27	=27	=27	=27	=27	=27	=27	=27	=27	=27
1E-	e-	1B-	e-	1e-	e-	1r	.	1g	e-
=28	=28	=28	=28	=28	=28	=28	=28	=28	=28
2BB-/	-jus	2B-\	-jus	2d\	-jus	1r	.	2f/	-jus
2BB-/	in	2B-\	in	2d\	in	.	.	2f/	in
=29	=29	=29	=29	=29	=29	=29	=29	=29	=29
1F	e-	1A	e-	1c	e-	1r	.	1f	e-
=30	=30	=30	=30	=30	=30	=30	=30	=30	=30
2C/	-o	2G/	-o	2c\	-o	1r	.	2e/	-o
2D\	non	2F/	non	2A/	non	.	.	2d/	non
=31	=31	=31	=31	=31	=31	=31	=31	=31	=31
1AA	est:	1E	est:	1A	est:	1r	.	1c#	est:
=32	=32	=32	=32	=32	=32	=32	=32	=32	=32
!!linebreak:original
2D\	hic	2F/	hic	2A/	hic	1r	.	2d/	hic
2D\	pec-	2F/	pec-	2A/	pec-	.	.	2d/	pec-
=33	=33	=33	=33	=33	=33	=33	=33	=33	=33
2D\	-ca-	2F/	-ca-	2A/	-ca-	1r	.	2d/	-ca-
2D\	-ta	2F/	-ta	2A/	-ta	.	.	2d/	-ta
=34	=34	=34	=34	=34	=34	=34	=34	=34	=34
1D	no-	1A	no-	1d	no-	1r	.	1f	no-
=35	=35	=35	=35	=35	=35	=35	=35	=35	=35
2AA/	-stra	2A/	-stra	2c#\	-stra	1r	.	2e/	-stra
2D\	por-	2A/	por-	2d\	por-	.	.	2f/	por-
=36	=36	=36	=36	=36	=36	=36	=36	=36	=36
1C	-ta-	1c	-ta-	1e	-ta-	1r	.	1g	-ta-
=37	=37	=37	=37	=37	=37	=37	=37	=37	=37
1F	-vit,	1c	-vit,	1f	-vit,	1r	.	1a	-vit,
=38	=38	=38	=38	=38	=38	=38	=38	=38	=38
2r	.	2r	.	2r	.	1r	.	2r	.
[2F\	et	[2c\	et	[2f\	et	.	.	[2a/	et
=39	=39	=39	=39	=39	=39	=39	=39	=39	=39
2F\]	.	2c\]	.	2f\]	.	1r	.	2a/]	.
2C/	pro	2c\	pro	2e\	pro	.	.	2g/	pro
=40	=40	=40	=40	=40	=40	=40	=40	=40	=40
2D\	no-	2A/	no-	2d\	no-	1r	.	2f/	no-
2AA/	-bis	2A/	-bis	2c#\	-bis	.	.	2e/	-bis
=41	=41	=41	=41	=41	=41	=41	=41	=41	=41
1D	do-	1A	do-	1d	do-	1r	.	1f	do-
=42	=42	=42	=42	=42	=42	=42	=42	=42	=42
1AA	-let:	1A	-let:	1c#	-let:	1r	.	1e	-let:
=43	=43	=43	=43	=43	=43	=43	=43	=43	=43
!!linebreak:original
2r	.	2r	.	2r	.	1r	.	2r	.
[2D\	i-	[2A/	i-	[2d\	i-	.	.	[2f/	i-
=44	=44	=44	=44	=44	=44	=44	=44	=44	=44
2D\]	.	2A/]	.	2d\]	.	1r	.	2f/]	.
2C/	-pse	2c\	-pse	2e\	-pse	.	.	2g/	-pse
=45	=45	=45	=45	=45	=45	=45	=45	=45	=45
1F	au-	1d	au-	[1f	au-	1r	.	1b-	au-
=46	=46	=46	=46	=46	=46	=46	=46	=46	=46
1BB-	-tem	1d	-tem	1f]	.	1r	.	1b-	-tem
=47	=47	=47	=47	=47	=47	=47	=47	=47	=47
[1E-	vul-	1r	.	[1B-	-tem	1r	.	[1g	vul-
=48	=48	=48	=48	=48	=48	=48	=48	=48	=48
2E-\]	.	[1G	vul-	1B-]	.	1r	.	2g/]	.
2D\	-ne-	.	.	.	.	.	.	2f/	-ne-
=49	=49	=49	=49	=49	=49	=49	=49	=49	=49
[1C	-ra-	1G]	.	[1c	vul-	1r	.	[1e-	-ra-
=50	=50	=50	=50	=50	=50	=50	=50	=50	=50
1C]	.	1G	-ne-	2c\]	.	1r	.	1e-]	.
.	.	.	.	2B-\	-ne-	.	.	.	.
=51	=51	=51	=51	=51	=51	=51	=51	=51	=51
[1D	-tus	2F#/	-ra-	1A	-ra-	1r	.	[1d	-tus
.	.	[2G/	.	.	.	.	.	.	.
=52	=52	=52	=52	=52	=52	=52	=52	=52	=52
1D]	.	2G/]	.	1A	-tus	1r	.	1d]	.
.	.	2F#i/	-tus	.	.	.	.	.	.
=53	=53	=53	=53	=53	=53	=53	=53	=53	=53
1GG	est	2G/	est	1Bn	est	1r	.	1d	est
.	.	[2d\	pro-	.	.	.	.	.	.
=54	=54	=54	=54	=54	=54	=54	=54	=54	=54
!!pagebreak:original
2r	.	4d\]	.	1r	.	1r	.	2r	.
.	.	4d\	-pter	.	.	.	.	.	.
[2G\	pro-	2d\	i-	.	.	.	.	[2b-\	pro-
=55	=55	=55	=55	=55	=55	=55	=55	=55	=55
4G\]	.	2B-\	-ni-	1d	pro-	1r	.	4b-\]	.
4G\	-pter	.	.	.	.	.	.	4b-\	-pter
2G\	i-	2G/	-qui-	.	.	.	.	2b-\	i-
=56	=56	=56	=56	=56	=56	=56	=56	=56	=56
2F\	-ni-	2A/	-ta-	2d\	-pter	1r	.	2a/	-ni-
2D\	-qui-	2B-\	-tes	2d\	i-	.	.	2f/	-qui-
=57	=57	=57	=57	=57	=57	=57	=57	=57	=57
[1F	-ta-	4A/	no-	2c\	-ni-	1r	.	1a	-ta-
.	.	4B-\	.	.	.	.	.	.	.
.	.	4c\	.	2A/	-qui-	.	.	.	.
.	.	4B-\	.	.	.	.	.	.	.
=58	=58	=58	=58	=58	=58	=58	=58	=58	=58
2F\]	.	4A/	.	2c\	-ta-	1r	.	2r	.
.	.	4F/	.	.	.	.	.	.	.
2E\	-tes	[2c\	.	2c\	-tes	.	.	2g/	-tes
=59	=59	=59	=59	=59	=59	=59	=59	=59	=59
[1D	no-	2c\]	.	[1d	no-	1r	.	[1f	no-
.	.	4Bn\	.	.	.	.	.	.	.
.	.	4A/	.	.	.	.	.	.	.
=60	=60	=60	=60	=60	=60	=60	=60	=60	=60
1D]	.	1Bni	.	1d]	.	1r	.	1f]	.
=61	=61	=61	=61	=61	=61	=61	=61	=61	=61
[1C	-stras:	[1c	-stras:	[1G	-stras:	1r	.	[1e	-stras:
=62	=62	=62	=62	=62	=62	=62	=62	=62	=62
1C]	.	1c]	.	1G]	.	1r	.	1e]	.
!!linebreak:original
=63||	=63||	=63||	=63||	=63||	=63||	=63||	=63||	=63||	=63||
!!linebreak:original
1r	.	1F	Cu-	1r	.	1r	.	1r	.
=64	=64	=64	=64	=64	=64	=64	=64	=64	=64
1C	Cu-	2G/	-jus	1r	.	1r	.	1r	.
.	.	2A/	li-	.	.	.	.	.	.
=65	=65	=65	=65	=65	=65	=65	=65	=65	=65
2D\	-jus	1B-	-vo-	1r	.	1r	.	1r	.
2E\	li-	.	.	.	.	.	.	.	.
=66	=66	=66	=66	=66	=66	=66	=66	=66	=66
1F	-vo-	1A	-re	1r	.	1r	.	1r	.
=67	=67	=67	=67	=67	=67	=67	=67	=67	=67
2E\	-re	2G/	sa-	1r	.	1r	.	1c	Cu-
2F\	sa-	2A/	-na-	.	.	.	.	.	.
=68	=68	=68	=68	=68	=68	=68	=68	=68	=68
2F\	-na-	2B-\	-ti	1r	.	1r	.	2d/	-jus
2E\	-ti	[2c\	su-	.	.	.	.	2e/	li-
=69	=69	=69	=69	=69	=69	=69	=69	=69	=69
1D	su-	4c\]	.	1F	Cu-	1r	.	1f	-vo-
.	.	8Bn/L	.	.	.	.	.	.	.
.	.	8A/J	.	.	.	.	.	.	.
.	.	2B\	.	.	.	.	.	.	.
=70	=70	=70	=70	=70	=70	=70	=70	=70	=70
1C	-mus	1c	-mus	2G/	-jus	1r	.	1e	-re
.	.	.	.	2A/	li-	.	.	.	.
=71	=71	=71	=71	=71	=71	=71	=71	=71	=71
1G	sa-	1r	.	1B-	-vo-	1r	.	1r	.
=72	=72	=72	=72	=72	=72	=72	=72	=72	=72
1F	-na-	2r	.	1A	-re	1r	.	1c	sa-
.	.	2c\	sa-	.	.	.	.	.	.
=73	=73	=73	=73	=73	=73	=73	=73	=73	=73
1BB-	-ti	[1B-	-na-	2f\	sa-	1r	.	1d	-na-
.	.	.	.	[2f\	-na-	.	.	.	.
=74	=74	=74	=74	=74	=74	=74	=74	=74	=74
2.D\	su-	1B-]	.	2f\]	.	1r	.	2d/	-ti
.	.	.	.	2d\	-ti	.	.	[2f/	su-
4E\	.	.	.	.	.	.	.	.	.
=75	=75	=75	=75	=75	=75	=75	=75	=75	=75
!!linebreak:original
1F	.	1A	-ti	[1c	su-	1r	.	4f/]	.
.	.	.	.	.	.	.	.	4c/	.
.	.	.	.	.	.	.	.	[2f/	.
=76	=76	=76	=76	=76	=76	=76	=76	=76	=76
1C	.	1G	su-	1c]	.	1r	.	4f/]	.
.	.	.	.	.	.	.	.	8e/L	.
.	.	.	.	.	.	.	.	8d/J	.
.	.	.	.	.	.	.	.	2e/	.
=77	=77	=77	=77	=77	=77	=77	=77	=77	=77
[1FF	-mus.	[1A	-mus.	[1c	-mus.	1r	.	[1f	-mus.
=78	=78	=78	=78	=78	=78	=78	=78	=78	=78
1FF]	.	1A]	.	1c]	.	1r	.	1f]	.
=79||	=79||	=79||	=79||	=79||	=79||	=79||	=79||	=79||	=79||
1r	.	1r	.	1f	Ve-	1a	Ve-	1r	.
=80	=80	=80	=80	=80	=80	=80	=80	=80	=80
1r	.	1r	.	2f\	-re	2a/	-re	1r	.
.	.	.	.	2e\	lan-	2cc\	lan-	.	.
=81	=81	=81	=81	=81	=81	=81	=81	=81	=81
1r	.	1r	.	2d\	-guo-	2b-\	-guo-	1r	.
.	.	.	.	2c\	-res	2a/	-res	.	.
=82	=82	=82	=82	=82	=82	=82	=82	=82	=82
1r	.	1r	.	1B-	no-	1g	no-	1r	.
=83	=83	=83	=83	=83	=83	=83	=83	=83	=83
1r	.	1r	.	2A/	-stros	2a/	-stros	1r	.
.	.	.	.	2d\	i-	[2b-\	i-	.	.
=84	=84	=84	=84	=84	=84	=84	=84	=84	=84
1r	.	1r	.	2e\	-pse	2b-\]	.	1r	.
.	.	.	.	[2f\	tu-	2a/	-pse	.	.
=85	=85	=85	=85	=85	=85	=85	=85	=85	=85
1r	.	1r	.	4f\]	.	1g	tu-	1r	.
.	.	.	.	8e\L	.	.	.	.	.
.	.	.	.	8d\J	.	.	.	.	.
.	.	.	.	2e\	.	.	.	.	.
=86	=86	=86	=86	=86	=86	=86	=86	=86	=86
!!pagebreak:original
1r	.	1r	.	1f	-lit,	1a	-lit,	1r	.
=87	=87	=87	=87	=87	=87	=87	=87	=87	=87
1r	.	1r	.	1r	.	1a	et	[1cc	et
=88	=88	=88	=88	=88	=88	=88	=88	=88	=88
1r	.	1r	.	1f	et	1a	do-	2cc\]	.
.	.	.	.	.	.	.	.	[2a/	do-
=89	=89	=89	=89	=89	=89	=89	=89	=89	=89
1r	.	1r	.	1d	do-	1f	-lo-	2a/]	.
.	.	.	.	.	.	.	.	[2b-\	-lo-
=90	=90	=90	=90	=90	=90	=90	=90	=90	=90
1r	.	1r	.	1e-	-lo-	1g	-res	2b-\]	.
.	.	.	.	.	.	.	.	[2g/	-res
=91	=91	=91	=91	=91	=91	=91	=91	=91	=91
1r	.	1r	.	1c	-res	1e-	no-	2g/]	.
.	.	.	.	.	.	.	.	[2a/	no-
=92	=92	=92	=92	=92	=92	=92	=92	=92	=92
1r	.	1r	.	1d	no-	1f	.	2a/]	.
.	.	.	.	.	.	.	.	2f/	-stros
=93	=93	=93	=93	=93	=93	=93	=93	=93	=93
1r	.	1r	.	2c\	-stros	1e	-stros	1g	i-
.	.	.	.	2c\	i-	.	.	.	.
=94	=94	=94	=94	=94	=94	=94	=94	=94	=94
1r	.	1r	.	2B-\	-pse	2r	.	2g/	-pse
.	.	.	.	2A/	por-	2c/	i-	2a/	por-
=95	=95	=95	=95	=95	=95	=95	=95	=95	=95
1r	.	1r	.	1G	-ta-	2d/	-pse	1b-	-ta-
.	.	.	.	.	.	2e/	por-	.	.
=96	=96	=96	=96	=96	=96	=96	=96	=96	=96
1r	.	1r	.	1F	.	[1f	-ta-	1a	.
=97	=97	=97	=97	=97	=97	=97	=97	=97	=97
1r	.	1r	.	[1c	-vit.	2f/]	.	[1g	-vit.
.	.	.	.	.	.	4e/	.	.	.
.	.	.	.	.	.	4d/	.	.	.
=98	=98	=98	=98	=98	=98	=98	=98	=98	=98
1r	.	1r	.	1c]	.	1e	-vit.	1g]	.
!!linebreak:original
=99||	=99||	=99||	=99||	=99||	=99||	=99||	=99||	=99||	=99||
!!linebreak:original
1r	.	1F	Cu-	1r	.	1r	.	1r	.
=100	=100	=100	=100	=100	=100	=100	=100	=100	=100
1C	Cu-	2G/	-jus	1r	.	1r	.	1r	.
.	.	2A/	li-	.	.	.	.	.	.
=101	=101	=101	=101	=101	=101	=101	=101	=101	=101
2D\	-jus	1B-	-vo-	1r	.	1r	.	1r	.
2E\	li-	.	.	.	.	.	.	.	.
=102	=102	=102	=102	=102	=102	=102	=102	=102	=102
1F	-vo-	1A	-re	1r	.	1r	.	1r	.
=103	=103	=103	=103	=103	=103	=103	=103	=103	=103
2E\	-re	2G/	sa-	1r	.	1r	.	1c	Cu-
2F\	sa-	2A/	-na-	.	.	.	.	.	.
=104	=104	=104	=104	=104	=104	=104	=104	=104	=104
2F\	-na-	2B-\	-ti	1r	.	1r	.	2d/	-jus
2E\	-ti	[2c\	su-	.	.	.	.	2e/	li-
=105	=105	=105	=105	=105	=105	=105	=105	=105	=105
1D	su-	4c\]	.	1F	Cu-	1r	.	1f	-vo-
.	.	8Bn/L	.	.	.	.	.	.	.
.	.	8A/J	.	.	.	.	.	.	.
.	.	2B\	.	.	.	.	.	.	.
=106	=106	=106	=106	=106	=106	=106	=106	=106	=106
1C	-mus	1c	-mus	2G/	-jus	1r	.	1e	-re
.	.	.	.	2A/	li-	.	.	.	.
=107	=107	=107	=107	=107	=107	=107	=107	=107	=107
1G	sa-	1r	.	1B-	-vo-	1r	.	1r	.
=108	=108	=108	=108	=108	=108	=108	=108	=108	=108
!!linebreak:original
1F	-na-	2r	.	1A	-re	1r	.	1c	sa-
.	.	2c\	sa-	.	.	.	.	.	.
=109	=109	=109	=109	=109	=109	=109	=109	=109	=109
1BB-	-ti	[1B-	-na-	2f\	sa-	1r	.	1d	-na-
.	.	.	.	[2f\	-na-	.	.	.	.
=110	=110	=110	=110	=110	=110	=110	=110	=110	=110
2.D\	su-	1B-]	.	2f\]	.	1r	.	2d/	-ti
.	.	.	.	2d\	-ti	.	.	[2f/	su-
4E\	.	.	.	.	.	.	.	.	.
=111	=111	=111	=111	=111	=111	=111	=111	=111	=111
1F	.	1A	-ti	[1c	su-	1r	.	4f/]	.
.	.	.	.	.	.	.	.	4c/	.
.	.	.	.	.	.	.	.	[2f/	.
=112	=112	=112	=112	=112	=112	=112	=112	=112	=112
1C	.	1G	su-	1c]	.	1r	.	4f/]	.
.	.	.	.	.	.	.	.	8e/L	.
.	.	.	.	.	.	.	.	8d/J	.
.	.	.	.	.	.	.	.	2e/	.
=113	=113	=113	=113	=113	=113	=113	=113	=113	=113
[1FF	-mus.	[1A	-mus.	[1c	-mus.	1r	.	[1f	-mus.
=114	=114	=114	=114	=114	=114	=114	=114	=114	=114
1FF]	.	1A]	.	1c]	.	1r	.	1f]	.
==	==	==	==	==	==	==	==	==	==
*-	*-	*-	*-	*-	*-	*-	*-	*-	*-
!!!OTL: Ecce vidimus eum 
!!!COM: Ingegneri, Marc' Antonio
!!!CDT: ca. 1535/36-1592-07-01
!!!TXO: Latin
!!!ODT: 
!!!ARL: Klasztor OO. Paulinów na Jasnej Górze
!!!voices:	5
!!title: @{OTL}, @{GTL}, ed. @{ENC}
!!!pag:
!!!GTL: Responsoria in Hebdomada majore
!!!EFL: 
!!!YEM: Creative Commons CC/BY/NC/SA 4.0
!!!ENC: Marcin Konik
!!!END: 2015-0m-dd
!!!EED: Marcin Konik
!!!EEV: 
!!!ONB: Encoded in vim by Marcin Konik
!!!CharacterEncoding: utf-8
!!!RDF**kern: l=long note in original notation
!!!RDF**kern: i=editorial accidental
!!muse2ps: z14jc180F
